Resources/Public/Icons/karte.svg

<?xml version="1.0" encoding="iso-8859-1"?>
<!-- Generator: Adobe Illustrator 16.0.0, SVG Export Plug-In . SVG Version: 6.00 Build 0)  -->
<!DOCTYPE svg PUBLIC "-//W3C//DTD SVG 1.1//EN" "http://www.w3.org/Graphics/SVG/1.1/DTD/svg11.dtd">
<svg version="1.1" id="Capa_1" xmlns="http://www.w3.org/2000/svg" xmlns:xlink="http://www.w3.org/1999/xlink" x="0px" y="0px"
	 width="512px" height="512px" viewBox="0 0 512 512" style="enable-background:new 0 0 512 512;" xml:space="preserve">
<g>
	<path d="M416,48c-44.188,0-80,35.813-80,80c0,11.938,2.625,23.281,7.312,33.438L416,304l72.688-142.563
		C493.375,151.281,496,139.938,496,128C496,83.813,460.188,48,416,48z M416,176c-26.5,0-48-21.5-48-48s21.5-48,48-48s48,21.5,48,48
		S442.5,176,416,176z M439.938,327.469l29.125,58.219l-73.844,36.906l-24.75-123.812l4.156-4.156l0.438-0.438l-15.25-30L352,272
		l-96-64l-96,64l-64-64L0,400l128,64l128-64l128,64l128-64l-54-107.969L439.938,327.469z M116.75,422.594l-73.813-36.906L104.75,262
		l32.625,32.625l4.156,4.156L116.75,422.594z M240,372.219l-89.5,44.75l23.125-115.594l4.125-2.75l62.25-41.5V372.219z M272,372.219
		V257.125l62.25,41.5l4.094,2.75l23.125,115.594L272,372.219z"/>
</g>
<g>
</g>
<g>
</g>
<g>
</g>
<g>
</g>
<g>
</g>
<g>
</g>
<g>
</g>
<g>
</g>
<g>
</g>
<g>
</g>
<g>
</g>
<g>
</g>
<g>
</g>
<g>
</g>
<g>
</g>
</svg>

<?xml version="1.0" encoding="UTF-8" standalone="no"?>
<!-- Generator: Adobe Illustrator 16.0.0, SVG Export Plug-In . SVG Version: 6.00 Build 0)  -->

<svg
   xmlns:dc="http://purl.org/dc/elements/1.1/"
   xmlns:cc="http://creativecommons.org/ns#"
   xmlns:rdf="http://www.w3.org/1999/02/22-rdf-syntax-ns#"
   xmlns:svg="http://www.w3.org/2000/svg"
   xmlns="http://www.w3.org/2000/svg"
   xmlns:sodipodi="http://sodipodi.sourceforge.net/DTD/sodipodi-0.dtd"
   xmlns:inkscape="http://www.inkscape.org/namespaces/inkscape"
   version="1.1"
   id="Capa_1"
   x="0px"
   y="0px"
   width="512px"
   height="512px"
   viewBox="0 0 512 512"
   style="enable-background:new 0 0 512 512;"
   xml:space="preserve"
   sodipodi:docname="karte.svg"
   inkscape:version="0.92.0 r15299"><metadata
     id="metadata41"><rdf:RDF><cc:Work
         rdf:about=""><dc:format>image/svg+xml</dc:format><dc:type
           rdf:resource="http://purl.org/dc/dcmitype/StillImage" /></cc:Work></rdf:RDF></metadata><defs
     id="defs39" /><sodipodi:namedview
     pagecolor="#ffffff"
     bordercolor="#666666"
     borderopacity="1"
     objecttolerance="10"
     gridtolerance="10"
     guidetolerance="10"
     inkscape:pageopacity="0"
     inkscape:pageshadow="2"
     inkscape:window-width="1920"
     inkscape:window-height="1017"
     id="namedview37"
     showgrid="false"
     inkscape:zoom="0.921875"
     inkscape:cx="258.30176"
     inkscape:cy="206.18105"
     inkscape:window-x="1912"
     inkscape:window-y="166"
     inkscape:window-maximized="1"
     inkscape:current-layer="Capa_1" /><path
     style="fill:#cfcacb;fill-opacity:1;stroke:none;stroke-opacity:1"
     inkscape:connector-curvature="0"
     id="path2"
     d="m 439.938,327.469 29.125,58.219 -73.844,36.906 -24.75,-123.812 4.156,-4.156 0.438,-0.438 -15.25,-30 L 352,272 256,208 160,272 96,208 0,400 128,464 256,400 384,464 512,400 458,292.031 Z M 116.75,422.594 42.937,385.688 104.75,262 l 32.625,32.625 4.156,4.156 z M 240,372.219 l -89.5,44.75 23.125,-115.594 4.125,-2.75 62.25,-41.5 z m 32,0 V 257.125 l 62.25,41.5 4.094,2.75 23.125,115.594 z"
     sodipodi:nodetypes="cccccccccccccccccccccccccccccccccccc" /><g
     id="g6" /><g
     id="g8" /><g
     id="g10" /><g
     id="g12" /><g
     id="g14" /><g
     id="g16" /><g
     id="g18" /><g
     id="g20" /><g
     id="g22" /><g
     id="g24" /><g
     id="g26" /><g
     id="g28" /><g
     id="g30" /><g
     id="g32" /><g
     id="g34" /><path
     style="fill:#b5203e;fill-opacity:1;stroke:none;stroke-opacity:1"
     inkscape:connector-curvature="0"
     id="path2-1"
     d="m 416,48 c -44.188,0 -80,35.813 -80,80 0,11.938 2.625,23.281 7.312,33.438 L 416,304 488.688,161.437 C 493.375,151.281 496,139.938 496,128 496,83.813 460.188,48 416,48 Z m 0,128 c -26.5,0 -48,-21.5 -48,-48 0,-26.5 21.5,-48 48,-48 26.5,0 48,25.37258 48,48 0,22.62742 -21.5,48 -48,48 z"
     sodipodi:nodetypes="sscccsssssas" /></svg>
